X:1
T:Title
%%score { ( 1 3 ) | ( 2 4 ) }
L:1/8
M:3/4
K:G
V:1 treble nm="Grand Piano"
V:3 treble 
V:2 treble 
V:4 treble 
V:1
 z2 z2[Q:1/4=94] D>G | B3 B c>B | [GB]2 [FA]2 [FA]>[GB] | [Ac]3 [ce] [Bd]>[Ac] |[M:2/4] B4 | %5
[M:1/4] d>c |[M:3/4] B3 B [EA]>[EB] | [Ed]2 [Ec]2 [EG]>[^DA] | B3 B B>A | [B,G]6 | D>G B2 c2 | %11
 [GB]>[FA] [FA]4 | [FA]>[GB] [Ac]2 [Ad]2 | c>B B3 B | [Bd]>[Ac] [GB]3 [GB] | z2 [Ec]4 | B>c B3 B | %17
[M:5/8] B>A [B,G]3 |] %18
V:2
 z2 z2 [G,B,]>[G,B,D] | [G,DG]3 [G,DG] [G,EG]>[G,DG] | [D,D]2 [D,D]2 [D,D]>[D,D] | %3
 [D,D]3 [D,D] [E,D]>[F,D] |[M:2/4][K:treble] [G,DG]4 |[M:1/4] [G,B,G]>[G,EG] | %6
[M:3/4] [G,DG]3 [G,DG][K:bass] [C,C]>[B,,^G,] | [A,,A,]2 [C,A,]2 [C,G,]>[C,G,] | %8
 [D,G,D]3 [D,G,D] [D,F,D]>[D,F,C] | [G,,G,]6 | [G,B,]>[K:treble][G,B,D] [G,DG]2 [G,EG]2 | %11
 [D,D]>[D,C] [D,C]4 | [D,D]>[D,D] [D,D]2 [F,D]2 | [G,EG]>[G,DG] [G,DG]3 [G,DG] | %14
 [G,D]>[K:bass][F,D] [G,D]3 [G,D] | [C,C]>[B,,^G,] A,2 z2 | [D,G,D]>[D,G,E] [D,G,D]3 [D,G,D] | %17
[M:5/8] [D,F,D]>[D,F,C] [G,,G,]3 |] %18
V:3
 x6 | x6 | x6 | x6 |[M:2/4] x4 |[M:1/4] x2 |[M:3/4] x6 | x6 | x6 | x6 | x6 | x6 | x6 | x6 | x6 | %15
 [EA]>[EB] z2 E,2 | x6 |[M:5/8] x5 |] %18
V:4
 x6 | x6 | x6 | x6 |[M:2/4][K:treble] x4 |[M:1/4] x2 |[M:3/4] x4[K:bass] x2 | x6 | x6 | x6 | %10
 x3/2[K:treble] x9/2 | x6 | x6 | x6 | x3/2[K:bass] x9/2 | z2 A,,4 | x6 |[M:5/8] x5 |] %18

